dist/img/carticon3.svg

<svg width="35" height="35" viewBox="0 0 35 35" xmlns="http://www.w3.org/2000/svg">
<g clip-path="url(#clip0)">
<path d="M16.9509 0C11.3732 0 7.17763 3.26416 5.88735 8.26294C5.81044 8.29071 5.72927 8.31848 5.65236 8.35052C3.41573 9.22638 1.67043 10.7901 0.745443 12.7533C-0.237223 14.8532 -0.254313 17.2437 0.692037 19.6704C1.62771 22.0609 3.61867 24.4278 6.01979 25.9937C7.79073 27.1472 9.57448 27.7475 11.1596 27.7475C11.7705 27.7475 12.3494 27.6514 12.8835 27.4719L16.404 33.5068V34.4531C16.404 34.7543 16.6475 35 16.9509 35C17.2542 35 17.4978 34.7543 17.4978 34.4531V33.511L22.3427 25.4382C22.3662 25.3976 22.3748 25.3506 22.3876 25.3079C22.5884 25.3271 22.7913 25.3421 22.9986 25.3421C24.9724 25.3421 27.1984 24.4128 29.309 22.6782C31.8255 20.6061 33.778 17.6859 34.5321 14.8682C35.299 12.0142 34.9764 9.32465 33.6028 7.08801C32.3168 4.99451 30.1571 3.44574 27.5316 2.74506C26.3887 2.43958 25.28 2.31354 24.2141 2.35199C22.2872 0.854492 19.8006 0 16.9509 0ZM16.9509 1.09375C19.0786 1.09375 20.9755 1.61285 22.5499 2.5592C23.0114 2.83264 23.4365 3.13812 23.836 3.48206C26.0341 5.35339 27.3415 8.22021 27.3415 11.6553C27.3415 16.3293 24.887 21.3174 21.7702 24.0839C21.4412 24.3744 21.108 24.6414 20.7619 24.8828C19.5272 25.7458 18.2241 26.25 16.9509 26.25C16.3613 26.25 15.7589 26.1411 15.1629 25.9381C14.8018 25.8121 14.4408 25.654 14.0862 25.4639C10.1085 23.3405 6.56026 17.2757 6.56026 11.6553C6.56026 10.7623 6.64785 9.90997 6.81661 9.10675C6.89992 8.69019 7.00887 8.29071 7.13491 7.90192C8.49569 3.75763 12.155 1.09375 16.9509 1.09375ZM16.906 2.16614C16.3463 2.17041 15.7802 2.22382 15.2099 2.32635C14.8552 2.39044 14.5028 2.47376 14.1631 2.57202C13.8747 2.65747 13.7081 2.96295 13.7914 3.25134C13.8619 3.4906 14.0798 3.64441 14.3169 3.64441C14.3682 3.64441 14.4195 3.638 14.4729 3.62305C14.7741 3.53333 15.0881 3.46069 15.4043 3.40301C16.4168 3.2193 17.4102 3.21289 18.3544 3.38379C18.6556 3.43933 18.9354 3.24066 18.991 2.94373C19.0444 2.64465 18.8457 2.36053 18.5488 2.30713C18.0126 2.211 17.4636 2.16187 16.906 2.16614ZM20.4351 2.91382C20.2215 2.90955 20.0164 3.02918 19.9245 3.23425C19.7985 3.50983 19.9202 3.83453 20.198 3.95843C20.5996 4.14001 20.999 4.36005 21.3878 4.61212C21.4818 4.67194 21.5844 4.69971 21.6848 4.69971C21.8642 4.69971 22.0394 4.61212 22.1462 4.4519C22.3085 4.19769 22.2359 3.85803 21.9838 3.69568C21.548 3.41156 21.0994 3.16589 20.6466 2.96082C20.5782 2.93091 20.5056 2.91595 20.4351 2.91382ZM25.4445 3.48206C26.0341 3.52692 26.6366 3.63586 27.2475 3.80035C29.6059 4.42841 31.5307 5.802 32.6735 7.66266C33.8826 9.63654 34.1604 12.0248 33.4768 14.5862C32.7782 17.1945 30.956 19.9011 28.6104 21.8323C26.7519 23.3682 24.825 24.2056 23.146 24.2419C26.1046 21.3217 28.4353 16.6519 28.4353 11.6553C28.4353 8.35052 27.3351 5.52216 25.4445 3.48206ZM31.0244 7.67548C30.8876 7.65839 30.7402 7.6947 30.6228 7.78656C30.3835 7.97455 30.3408 8.31635 30.5288 8.5556C31.2914 9.53186 31.7101 10.7281 31.7421 12.0163C31.7507 12.3132 31.9942 12.5504 32.289 12.5504H32.304C32.6052 12.5418 32.8444 12.2919 32.8359 11.9885C32.7974 10.4654 32.2976 9.0448 31.3897 7.88269C31.2957 7.76306 31.1632 7.69257 31.0244 7.67548ZM5.62459 9.55322C5.51992 10.2261 5.46651 10.9268 5.46651 11.6553C5.46651 17.9657 9.17501 23.7463 13.1762 26.1517C13.0181 26.2393 12.8557 26.3162 12.6912 26.3803C11.0784 27.0148 8.85671 26.5405 6.61367 25.0793C4.40053 23.631 2.56765 21.4584 1.71102 19.2709C0.873617 17.1283 0.884298 15.0391 1.73665 13.2233C2.48647 11.6382 3.85366 10.3415 5.62459 9.55322ZM10.4995 13.6142L9.41426 13.7381C9.11306 13.7701 8.89943 14.0414 8.93361 14.3405C8.96352 14.6204 9.20064 14.8276 9.47408 14.8276C9.49544 14.8276 9.5168 14.8276 9.53603 14.8254L10.6234 14.7015C10.9246 14.6674 11.1382 14.3961 11.1062 14.097C11.072 13.7958 10.8007 13.58 10.4995 13.6142ZM11.2471 16.3123C11.1767 16.3101 11.104 16.3229 11.0335 16.3486L10.0145 16.7502C9.7347 16.8613 9.59584 17.1774 9.70693 17.4573C9.79024 17.673 9.99745 17.8055 10.2175 17.8055C10.2837 17.8055 10.3499 17.7927 10.4162 17.767L11.433 17.3676C11.715 17.2586 11.8538 16.9403 11.7428 16.6605C11.6594 16.449 11.4608 16.3165 11.2471 16.3123ZM12.6613 18.754C12.5246 18.7326 12.3772 18.7646 12.2555 18.8565L11.3775 19.5059C11.1339 19.6832 11.0827 20.0272 11.26 20.2686C11.3689 20.416 11.5334 20.4907 11.7022 20.4907C11.8154 20.4907 11.9286 20.4565 12.0269 20.3839L12.907 19.7345C13.1484 19.5551 13.1997 19.2133 13.0202 18.9697C12.9305 18.848 12.8002 18.7753 12.6613 18.754ZM14.4515 20.7556C14.3126 20.7706 14.1781 20.8411 14.0862 20.9586L13.4047 21.8152C13.2146 22.0502 13.2552 22.3941 13.4902 22.5821C13.5927 22.6611 13.7124 22.7017 13.832 22.7017C13.9922 22.7017 14.1524 22.6312 14.2592 22.4966L14.9407 21.64C15.1287 21.4029 15.0881 21.059 14.8531 20.871C14.7356 20.777 14.5903 20.7407 14.4515 20.7556ZM20.591 26.2286L17.4978 31.3855V27.3117C18.5082 27.2113 19.5571 26.8332 20.591 26.2286ZM14.287 26.7307C15.0005 27.0468 15.7119 27.2412 16.404 27.3096V31.3364L13.8747 26.9998C14.0136 26.9144 14.1546 26.8311 14.287 26.7307Z"/>
</g>
<defs>
<clipPath id="clip0">
<rect width="35" height="35" fill="white"/>
</clipPath>
</defs>
</svg>

<svg xmlns="http://www.w3.org/2000/svg" viewBox="0 0 35 35"><g clip-path="url(#clip0)"><path d="M16.95 0C11.374 0 7.179 3.264 5.888 8.263c-.077.028-.158.055-.235.088-2.236.875-3.982 2.44-4.907 4.402-.982 2.1-1 4.49-.053 6.917.936 2.39 2.927 4.758 5.328 6.324 1.77 1.153 3.554 1.753 5.14 1.753.61 0 1.19-.096 1.723-.275l3.521 6.035v.946a.547.547 0 101.094 0v-.942l4.845-8.073c.023-.04.032-.087.045-.13.2.02.403.034.61.034 1.974 0 4.2-.93 6.311-2.664 2.517-2.072 4.469-4.992 5.223-7.81.767-2.854.444-5.543-.93-7.78-1.285-2.093-3.445-3.642-6.07-4.343a11.244 11.244 0 00-3.318-.393C22.287.854 19.801 0 16.951 0zm0 1.094c2.129 0 4.026.519 5.6 1.465.461.274.886.58 1.286.923 2.198 1.871 3.506 4.738 3.506 8.173 0 4.674-2.455 9.662-5.572 12.429-.329.29-.662.557-1.008.799-1.235.863-2.538 1.367-3.811 1.367-.59 0-1.192-.109-1.788-.312a7.54 7.54 0 01-1.077-.474C10.108 23.34 6.56 17.276 6.56 11.655c0-.893.088-1.745.257-2.548.083-.417.192-.816.318-1.205 1.36-4.144 5.02-6.808 9.816-6.808zm-.044 1.072a10.01 10.01 0 00-1.696.16 10.51 10.51 0 00-1.047.246.547.547 0 10.31 1.051c.301-.09.615-.162.931-.22a8.256 8.256 0 012.95-.02.545.545 0 00.637-.44.548.548 0 00-.442-.636 8.915 8.915 0 00-1.643-.14zm3.53.748a.546.546 0 00-.238 1.044c.402.182.801.402 1.19.654a.55.55 0 00.758-.16.55.55 0 00-.162-.756c-.436-.284-.885-.53-1.337-.735a.573.573 0 00-.212-.047zm5.009.568c.59.045 1.192.154 1.802.318 2.359.628 4.284 2.002 5.426 3.863 1.21 1.974 1.487 4.362.804 6.923-.699 2.609-2.521 5.315-4.867 7.246-1.858 1.536-3.785 2.374-5.464 2.41 2.959-2.92 5.29-7.59 5.29-12.587 0-3.304-1.1-6.133-2.991-8.173zm5.58 4.193a.546.546 0 00-.496.88c.762.977 1.181 2.173 1.213 3.461a.55.55 0 00.547.534h.015a.547.547 0 00.532-.562c-.039-1.523-.538-2.943-1.446-4.105a.549.549 0 00-.366-.208zm-25.4 1.878a13.663 13.663 0 00-.158 2.102c0 6.31 3.708 12.091 7.71 14.497a4 4 0 01-.486.228c-1.613.635-3.834.16-6.077-1.3C4.4 23.63 2.568 21.457 1.71 19.27c-.837-2.142-.827-4.23.026-6.047.75-1.585 2.117-2.882 3.888-3.67zm4.874 4.061l-1.085.124a.542.542 0 00-.48.603c.03.28.267.487.54.487.021 0 .043 0 .062-.003l1.087-.123a.548.548 0 10-.124-1.087zm.748 2.698a.574.574 0 00-.213.037l-1.02.401a.547.547 0 00.402 1.017l1.017-.4a.546.546 0 00-.186-1.055zm1.414 2.442a.535.535 0 00-.405.102l-.879.65a.546.546 0 10.65.878l.88-.65a.548.548 0 00-.246-.98zm1.79 2.002a.539.539 0 00-.365.203l-.681.856a.544.544 0 00.427.887c.16 0 .32-.07.427-.205l.682-.857a.549.549 0 00-.49-.884zm6.14 5.473l-3.093 5.157v-4.074c1.01-.1 2.06-.479 3.093-1.083zm-6.304.502a6.92 6.92 0 002.117.579v4.026L13.874 27c.14-.086.28-.169.413-.27z"/></g><defs><clipPath id="clip0"><path fill="#fff" d="M0 0h35v35H0z"/></clipPath></defs></svg>
